X:1
T:BWV 0789
T:Sinfonia 3   (A = 415 Hz)
T:Johann Sebastian Bach
%%score { ( 1 3 ) | 2 }
L:1/8
Q:1/4=120
M:4/4
K:D
V:1 treble nm="Harp"
V:3 treble 
V:2 bass 
V:1
"^Allegretto" z f/g/ a=c Be/f/ gB | Ad/e/ fA G/f/e/d/ c/b/a/g/ | f/e/d/e/ f/e/f/^g/ a2 e2- | %3
 e2 d2- d2 c2- | c/e/d/c/ B^g a4- | a/c/d/e/ f/g/f/e/ ^d/B/c/d/ e/f/e/=d/ | %6
 c/A/B/c/ d/e/d/c/ B2 e2- | eA d>e c/B/A/B/ c/B/c/^d/ | eB e>f d/c/B/c/ d/c/d/e/ | %9
 f/e/d/e/ fA ^Gc/d/ e=G | FB/c/ dF E/d/c/B/ ^A/g/f/e/ | d/c/B/c/ d/B/c/d/ ^E/^G/A/B/ c2- | %12
 c/F/^G/A/ B2- B/^E/F/G/ A2- | A/A/^G/F/ ^E2 Ff/=g/ a=c | B2 f2- f/g/f/e/ ^d/=c'/b/a/ | %15
 g/a/g/f/ e/f/g/e/ ce/f/ gB | A4- A/G/F/G/ A/G/A/B/ | =c/B/c/d/ e/d/c/B/ A/G/A/B/ c/B/c/d/ | %18
 B/A/G/A/ B/=c/d- d2 =c2- | c2 B2- Bg Af | g/d/e/f/ g/b/a/g/ f/e/d/e/ f/g/f/e/ | %21
 ^d/B/c/d/ e/f/e/=d/ c/A/B/c/ d/e/d/c/ | B/A/G/F/ Ec df/g/ a=c | Be/f/ gB Ad/e/ fA | %24
 G/f/e/d/ c2 !fermata!d4 |] %25
V:2
 D2 z F, G,2 z E, | F,2 z D, B,G, A,A,, | D,DCB, A,/^G,/A,/B,/ C/D/C/B,/ | %3
 ^A,/F,/^G,/A,/ B,/C/B,/=A,/ G,/E,/F,/G,/ A,/B,/A,/=G,/ | F,D, E,E,, A,,/B,,/C,/D,/ E,/F,/=G,/E,/ | %5
 F,/E,/F,/G,/ A,=C, B,,E,/F,/ G,B,, | A,,D,/E,/ F,A,, G,,/F,/E,/D,/ C,/B,/A,/G,/ | %7
 F,/E,/D,/E,/ F,/E,/F,/^G,/ A,D, A,>B, | =G,/F,/E,/F,/ =G,/F,/=G,/A,/ B,A, G,2 | F,4- F,2 E,2- | %10
 E,2 z/ D,/E,/F,/ =G,2 F,2 | B,,4- B,,2 A,,2- | A,,2- A,,/A,/^G,/F,/ ^E,/C,/^D,/^E,/ F,B,,/C,/ | %13
 D,B,, C,C,, F,,2 z F,/G,/ | A,/G,/A,/B,/ =C/F,/G,/A,/ ^D,F,/G,/ A,D, | %15
 E,2 z E,/F,/ G,/F,/G,/A,/ B,/E,/F,/G,/ | C,D,/E,/ G,C, D,A,,/B,,/ =C,E,, | D,,8 | %18
 G,,B,/=C/ D=F, E,A,/B,/ CE, | D,G,/A,/ B,D, =C,/B,/A,/G,/ F,/E/D/=C/ | %20
 B,/A,/G,/A,/ B,/A,/B,/C/ D2 A,2- | A,2 G,2- G,2 F,2- | %22
 F,/E,/F,/G,/ A,/G,/F,/E,/ D,/C,/D,/E,/ F,/G,/F,/E,/ | %23
 ^D,/B,,/C,/D,/ E,/F,/E,/=D,/ C,/A,,/B,,/C,/ D,/E,/D,/C,/ | B,,G,A,A,, !fermata!D,,4 |] %25
V:3
 x8 | x8 | z4 z c/d/ e=G | FB/c/ dF EA/B/ cE | D/c/B/A/ ^G/f/e/d/ c/B/A/B/ c/A/B/c/ | %5
 d2 A2- A2 G2- | G2 F2- F/A/G/F/ E/d/c/B/ | A/G/F/G/ A/^G/A/B/ E4- | %8
 EG/A/ B/A/B/c/ F2[I:staff +1] B,2- | B,/^A,/B,/C/ D/E/D/C/ B,/^G,/^A,/B,/ C/D/C/B,/ | %10
 ^A,/F,/^G,/A,/ B,2 B,/B,/C/D/ EA, | B,=A, ^G,F, G,2- G,/[I:staff -1]^G/F/=E/ | %12
 ^D2- D/F/E/=D/ C2- C/=E/=D/C/ | B,2- B,/D/C/B,/ A, z z2 | z F/G/ A[I:staff +1]=C B,4- | %15
 B,[I:staff -1]E/F/ G[I:staff +1]B, A,2[I:staff -1] E2- | E/F/E/D/ C/B/A/G/ F2 z2 | %17
 z A/B/ =cE F<G- GF | G2 z/ =c/B/A/ ^G/E/^F/G/ A/B/A/=G/ | F/D/E/F/ G/A/G/F/ E z z2 | %20
 z4 z F/G/ A[I:staff +1]=C | %21
 B,[I:staff -1]E/F/ G[I:staff +1]B, A,[I:staff -1]D/E/ F[I:staff +1]A, | %22
[I:staff -1] G,/F/E/D/ C/B/A/G/ FA- A2- | A2 G2- G2 F2- | F/A/G/F/ E/B/A/G/ F4 |] %25

